symbols/web/fiber_dvr/materialsymbolsrounded/fiber_dvr_grad200fill1_20px.svg

<svg xmlns="http://www.w3.org/2000/svg" height="20" width="20"><path d="M13.229 12.521q.292 0 .49-.198t.198-.49v-.937h.854l.604 1.292q.063.145.208.239.146.094.313.094.333 0 .5-.271.166-.271.042-.562l-.396-.876q.291-.187.51-.52.219-.334.219-.73v-.708q0-.542-.406-.958-.407-.417-.948-.417h-2.292q-.25 0-.417.167-.166.166-.166.416v3.771q0 .292.198.49t.489.198Zm.688-2.959v-.708h1.5v.708Zm-4.021 2.959q.292 0 .531-.177.24-.177.323-.427l1.042-3.625q.104-.313-.094-.563-.198-.25-.531-.25-.25 0-.396.125-.146.125-.209.334l-.687 2.312-.625-2.292q-.042-.208-.219-.343-.177-.136-.385-.136-.334 0-.563.261-.229.26-.104.572l1.042 3.605q.083.25.344.427.26.177.531.177Zm-6.104 0h2.312q.542 0 .958-.406.417-.407.417-.948V8.854q0-.542-.417-.958-.416-.417-.958-.417H3.792q-.25 0-.417.167-.167.166-.167.416v3.876q0 .25.167.416.167.167.417.167Zm.791-1.354V8.854h1.521v2.313Zm-2.166 6q-.938 0-1.615-.677-.677-.678-.677-1.615v-9.75q0-.937.677-1.615.677-.677 1.615-.677h15.166q.938 0 1.615.677.677.678.677 1.615v9.75q0 .937-.677 1.615-.677.677-1.615.677Z"/></svg>

<svg xmlns="http://www.w3.org/2000/svg" height="20" width="20"><path d="M13.229 12.521Q13.521 12.521 13.719 12.323Q13.917 12.125 13.917 11.833V10.896H14.771L15.375 12.188Q15.438 12.333 15.583 12.427Q15.729 12.521 15.896 12.521Q16.229 12.521 16.396 12.25Q16.562 11.979 16.438 11.688L16.042 10.812Q16.333 10.625 16.552 10.292Q16.771 9.958 16.771 9.562V8.854Q16.771 8.312 16.365 7.896Q15.958 7.479 15.417 7.479H13.125Q12.875 7.479 12.708 7.646Q12.542 7.812 12.542 8.062V11.833Q12.542 12.125 12.74 12.323Q12.938 12.521 13.229 12.521ZM13.917 9.562V8.854H15.417Q15.417 8.854 15.417 8.854Q15.417 8.854 15.417 8.854V9.562Q15.417 9.562 15.417 9.562Q15.417 9.562 15.417 9.562ZM9.896 12.521Q10.188 12.521 10.427 12.344Q10.667 12.167 10.75 11.917L11.792 8.292Q11.896 7.979 11.698 7.729Q11.5 7.479 11.167 7.479Q10.917 7.479 10.771 7.604Q10.625 7.729 10.562 7.938L9.875 10.25L9.25 7.958Q9.208 7.75 9.031 7.615Q8.854 7.479 8.646 7.479Q8.312 7.479 8.083 7.74Q7.854 8 7.979 8.312L9.021 11.917Q9.104 12.167 9.365 12.344Q9.625 12.521 9.896 12.521ZM3.792 12.521H6.104Q6.646 12.521 7.062 12.115Q7.479 11.708 7.479 11.167V8.854Q7.479 8.312 7.062 7.896Q6.646 7.479 6.104 7.479H3.792Q3.542 7.479 3.375 7.646Q3.208 7.812 3.208 8.062V11.938Q3.208 12.188 3.375 12.354Q3.542 12.521 3.792 12.521ZM4.583 11.167V8.854H6.104Q6.104 8.854 6.104 8.854Q6.104 8.854 6.104 8.854V11.167Q6.104 11.167 6.104 11.167Q6.104 11.167 6.104 11.167ZM2.417 17.167Q1.479 17.167 0.802 16.49Q0.125 15.812 0.125 14.875V5.125Q0.125 4.188 0.802 3.51Q1.479 2.833 2.417 2.833H17.583Q18.521 2.833 19.198 3.51Q19.875 4.188 19.875 5.125V14.875Q19.875 15.812 19.198 16.49Q18.521 17.167 17.583 17.167Z"/></svg>
